Newaita-dark/apps/24/matlab.svg

<svg height="24" viewBox="0 0 24 24" width="24" xmlns="http://www.w3.org/2000/svg" xmlns:xlink="http://www.w3.org/1999/xlink"><linearGradient id="a" gradientUnits="userSpaceOnUse" x1="11.90739" x2="11.90739" y1="21.02545225" y2="22.01773525002"><stop offset="0" stop-opacity=".27451"/><stop offset="1" stop-opacity="0"/></linearGradient><linearGradient id="b"><stop offset="0" stop-opacity=".313726"/><stop offset=".222222" stop-opacity=".27451"/><stop offset="1" stop-opacity="0"/></linearGradient><radialGradient id="c" cx="450.908936" cy="189.579361" gradientTransform="matrix(.00000013 -.0585994 -.105479 -.00000008 39.097986 47.696499)" gradientUnits="userSpaceOnUse" r="21.166656" xlink:href="#b"/><radialGradient id="d" cx="450.908936" cy="189.579361" gradientTransform="matrix(-.00000013 .0585994 .105479 .00000008 -15.28321 -5.645609)" gradientUnits="userSpaceOnUse" r="21.166656" xlink:href="#b"/><radialGradient id="e" cx="450.908936" cy="189.579361" gradientTransform="matrix(-.00000013 -.0585994 .105479 -.00000008 -15.28321 47.696499)" gradientUnits="userSpaceOnUse" r="21.166656" xlink:href="#b"/><radialGradient id="f" cx="450.908936" cy="189.579361" gradientTransform="matrix(.00000013 .0585994 -.105479 .00000008 39.097985 -5.64561)" gradientUnits="userSpaceOnUse" r="21.166656" xlink:href="#b"/><linearGradient id="g" gradientUnits="userSpaceOnUse" x1="7.93826174998" x2="7.93826174998" y1="21.02545025" y2="2.17207850005"><stop offset="0" stop-color="#ffa726"/><stop offset="1" stop-color="#ffb74d"/></linearGradient><linearGradient id="h" gradientUnits="userSpaceOnUse" x1="11.90737899256" x2="11.9073799635" y1="21.02543265015" y2="2.17208092226"><stop offset="0" stop-color="#e0e0e0"/><stop offset="1" stop-color="#eee"/></linearGradient><path d="m4.464844 20.953125h14.882812v1.101563h-14.882812zm0 0" fill="url(#a)"/><path d="m19.347656 21.027344h1.988282v-.996094h-1.988282zm0 0" fill="url(#c)"/><path d="m4.464844 21.027344h-1.984375v.992187h1.984375zm0 0" fill="url(#d)"/><path d="m4.464844 21.027344h-1.984375v-.996094h1.984375zm0 0" fill="url(#e)"/><path d="m19.347656 21.027344h1.988282v.992187h-1.988282zm0 0" fill="url(#f)"/><path d="m3.472656 2.171875h16.867188c.550781 0 .996094.445313.996094.992187v16.867188c0 .550781-.445313.996094-.996094.996094h-16.867188c-.546875 0-.992187-.445313-.992187-.996094v-16.867188c0-.546874.445312-.992187.992187-.992187zm0 0" fill="url(#g)"/><path d="m3.472656 2.222656c-.550781 0-.992187.441406-.992187.992188v.121094c0-.546876.441406-.992188.992187-.992188h16.867188c.550781 0 .996094.445312.996094.992188v-.121094c0-.550782-.445313-.992188-.996094-.992188zm0 0" fill="#e6e6e6" fill-opacity=".588235"/><path d="m3.472656 20.964844c-.550781 0-.992187-.445313-.992187-.992188v-.125c0 .550782.441406.992188.992187.992188h16.867188c.550781 0 .996094-.441406.996094-.992188v.125c0 .546875-.445313.992188-.996094.992188zm0 0" fill-opacity=".196078"/><path d="m74.076259-168.671091h359.798975c11.748878 0 21.247971 9.499093 21.247971 21.164646v359.798974c0 11.748878-9.499093 21.247971-21.247971 21.247971h-359.798975c-11.665552 0-21.164645-9.499093-21.164645-21.247971v-359.798974c0-11.665553 9.499093-21.164646 21.164645-21.164646zm0 0" fill="none" stroke="#212121" stroke-linecap="round" stroke-width="3" transform="matrix(.0468795 0 0 .0468795 0 10.079087)"/><path d="m14.445312 5.832031c-.207031.164063-.816406 1.320313-1.425781 2.695313-.246093.5625-.59375 1.296875-.769531 1.632812-.523438 1-1.800781 2.816406-2.394531 3.398438l-.550781.546875c1.019531.4375 1.363281 2.949219 1.992187 3.34375.046875 0 .316406-.152344.617187-.34375.667969-.433594 1.292969-1.015625 2.144532-2.011719 1.328125-1.546875 2.328125-1.875 3.554687-1.164062.332031.191406.605469.3125.605469.269531 0-.050781-.167969-.515625-.371094-1.042969-.203125-.523438-.757812-2.007812-1.226562-3.292969-.335938-.566406-1.433594-4.425781-2.175782-4.027343m-2.648437 3.167968c-.007813 0-.011719 0-.019531.003906-.507813.378907-2.351563 1.351563-2.261719 1.5625.097656.222657.886719.757813 1.035156.640626.070313-.054688.34375-.460938.613281-.902344.472657-.789063.714844-1.292969.632813-1.304688m-3.148437 2.226563c-.191407 0-2.90625 1.054687-3.039063 1.179687-.035156.035156.003906.101563.089844.152344.75.523438 1.496093 1.019531 2.128906 1.421875.03125 0 .273437-.128906.53125-.289063.539063-.335937 1.585937-1.367187 1.582031-1.566406-.003906-.175781-1.046875-.898437-1.292968-.898437" fill="url(#h)"/><path d="m14.550781 5.804688c-.035156 0-.070312.011718-.105469.03125v-.003907c-.207031.164063-.816406 1.320313-1.425781 2.695313-.246093.5625-.59375 1.296875-.769531 1.632812-.523438 1-1.800781 2.816406-2.394531 3.398438l-.550781.546875c.09375.039062.179687.097656.265624.167969l.285157-.285157c.59375-.578125 1.871093-2.398437 2.394531-3.398437.175781-.335938.523438-1.070313.769531-1.632813.609375-1.375 1.21875-2.53125 1.425781-2.695312v.003906c.742188-.398437 1.839844 3.460937 2.175782 4.027344.46875 1.289062 1.023437 2.769531 1.226562 3.296875.082032.207031.15625.40625.214844.570312.097656.042969.15625.058594.15625.039063 0-.050781-.167969-.515625-.371094-1.042969-.203125-.523438-.757812-2.007812-1.226562-3.292969-.320313-.539062-1.332032-4.074219-2.070313-4.058593zm-2.753906 3.199218c-.007813 0-.011719 0-.019531.003906-.507813.378907-2.351563 1.351563-2.261719 1.5625.023437.054688.089844.125.175781.203126.402344-.324219 1.382813-.871094 1.894532-1.203126.183593-.351562.265624-.558593.210937-.566406zm-3.148437 2.226563c-.191407 0-2.90625 1.054687-3.039063 1.179687-.035156.035156.003906.101563.089844.152344.066406.042969.132812.089844.195312.132812.730469-.320312 2.597657-1.03125 2.753907-1.03125v-.003906c.191406 0 .859374.4375 1.152343.714844.089844-.113281.140625-.199219.140625-.246094-.003906-.175781-1.046875-.898437-1.292968-.898437zm0 0" fill="#fff"/><path d="m11.796875 9.355469c-.007813 0-.011719 0-.019531.003906-.039063.027344-.082032.054687-.128906.089844-.113282.21875-.277344.511719-.484376.859375-.269531.441406-.542968.847656-.613281.902344-.117187.09375-.648437-.230469-.902343-.480469-.097657.085937-.148438.152343-.132813.191406.097656.222656.886719.757813 1.035156.640625.070313-.054688.34375-.460938.613281-.902344.472657-.789062.714844-1.292968.632813-1.304687zm-1.960937 2.972656c-.277344.375-1.042969 1.097656-1.476563 1.367187-.257813.160157-.5.289063-.53125.289063-.597656-.378906-1.296875-.84375-2.003906-1.335937-.117188.054687-.195313.09375-.214844.113281-.035156.035156.003906.101562.089844.148437.75.527344 1.496093 1.023438 2.128906 1.425782.03125 0 .273437-.128907.53125-.289063.539063-.335937 1.585937-1.367187 1.582031-1.566406 0-.03125-.039062-.085938-.105468-.152344zm6.625 1.242187c-.765626-.007812-1.507813.484376-2.402344 1.523438-.851563.996094-1.476563 1.578125-2.144532 2.011719-.300781.191406-.570312.34375-.617187.34375-.582031-.363281-.917969-2.539063-1.773437-3.210938l-.21875.21875c1.019531.433594 1.363281 2.949219 1.992187 3.34375.046875 0 .316406-.152343.617187-.34375.667969-.433593 1.292969-1.019531 2.144532-2.011719 1.328125-1.550781 2.328125-1.878906 3.554687-1.167968.332031.195312.605469.316406.605469.269531 0-.023437-.046875-.167969-.121094-.371094-.109375-.042969-.285156-.132812-.484375-.246093-.402343-.234376-.78125-.355469-1.152343-.359376zm0 0" fill-opacity=".235294"/><path d="m308.137241-90.595213c-4.416245 3.499665-17.415004 28.163977-30.413762 57.494509-5.249499 11.998854-12.665457 27.664025-16.415099 34.830007-11.165601 21.331297-38.412999 60.077597-51.078456 72.493078l-11.748878 11.665552c21.747923 9.332442 29.080556 62.910659 42.495942 71.326522.999904 0 6.749355-3.249689 13.165409-7.332633 14.24864-9.249117 27.5807-21.664598 45.745632-42.912569 28.330628-32.996848 49.661924-39.99618 75.826092-24.830962 7.082657 4.082944 12.915433 6.66603 12.915433 5.749451 0-1.08323-3.582991-10.998949-7.91591-22.247875-4.33292-11.165601-16.165123-42.829243-26.164168-70.243292-7.165983-12.08218-30.580413-94.407651-46.412235-85.908463m-56.494605 67.57688c-.166651 0-.249976 0-.416627.083325-10.832299 8.082562-50.161876 28.830581-48.245393 33.330151 2.083135 4.749546 18.914861 16.165123 22.081225 13.665362 1.499857-1.166556 7.332633-9.832395 13.082084-19.248162 10.082371-16.831726 15.248544-27.5807 13.498711-27.830676m-67.160253 47.495464c-4.082944 0-61.99408 22.497852-64.827143 25.164264-.749928.749928.083326 2.16646 1.916484 3.24969 15.998472 11.1656 31.913619 21.747923 45.41233 30.330437.666603 0 5.832776-2.749738 11.332251-6.166078 11.498902-7.165983 33.830103-29.163882 33.746777-33.413476-.083325-3.749642-22.3312-19.164837-27.580699-19.164837" fill="none" stroke="#212121" stroke-width="3" transform="matrix(.0468795 0 0 .0468795 0 10.079087)"/></svg>

<?xml version="1.0" encoding="UTF-8"?>
<svg xmlns="http://www.w3.org/2000/svg" xmlns:xlink="http://www.w3.org/1999/xlink" width="24px" height="24px" viewBox="0 0 24 24" version="1.1">
<defs>
<linearGradient id="linear0" gradientUnits="userSpaceOnUse" x1="254" y1="233.5" x2="254" y2="254.666672" gradientTransform="matrix(0.0468795,0,0,0.0468795,-0.0000028613,10.079089)">
<stop offset="0" style="stop-color:rgb(0%,0%,0%);stop-opacity:0.27451;"/>
<stop offset="1" style="stop-color:rgb(0%,0%,0%);stop-opacity:0;"/>
</linearGradient>
<radialGradient id="radial0" gradientUnits="userSpaceOnUse" cx="450.908936" cy="189.579361" fx="450.908936" fy="189.579361" r="21.166656" gradientTransform="matrix(0.000000130628,-0.0585994,-0.105479,-0.0000000761539,39.097986,47.696499)">
<stop offset="0" style="stop-color:rgb(0%,0%,0%);stop-opacity:0.313726;"/>
<stop offset="0.222222" style="stop-color:rgb(0%,0%,0%);stop-opacity:0.27451;"/>
<stop offset="1" style="stop-color:rgb(0%,0%,0%);stop-opacity:0;"/>
</radialGradient>
<radialGradient id="radial1" gradientUnits="userSpaceOnUse" cx="450.908936" cy="189.579361" fx="450.908936" fy="189.579361" r="21.166656" gradientTransform="matrix(-0.000000130628,0.0585994,0.105479,0.0000000761539,-15.28321,-5.645609)">
<stop offset="0" style="stop-color:rgb(0%,0%,0%);stop-opacity:0.313726;"/>
<stop offset="0.222222" style="stop-color:rgb(0%,0%,0%);stop-opacity:0.27451;"/>
<stop offset="1" style="stop-color:rgb(0%,0%,0%);stop-opacity:0;"/>
</radialGradient>
<radialGradient id="radial2" gradientUnits="userSpaceOnUse" cx="450.908936" cy="189.579361" fx="450.908936" fy="189.579361" r="21.166656" gradientTransform="matrix(-0.000000130628,-0.0585994,0.105479,-0.0000000761539,-15.28321,47.696499)">
<stop offset="0" style="stop-color:rgb(0%,0%,0%);stop-opacity:0.313726;"/>
<stop offset="0.222222" style="stop-color:rgb(0%,0%,0%);stop-opacity:0.27451;"/>
<stop offset="1" style="stop-color:rgb(0%,0%,0%);stop-opacity:0;"/>
</radialGradient>
<radialGradient id="radial3" gradientUnits="userSpaceOnUse" cx="450.908936" cy="189.579361" fx="450.908936" fy="189.579361" r="21.166656" gradientTransform="matrix(0.000000130628,0.0585994,-0.105479,0.0000000761539,39.097985,-5.64561)">
<stop offset="0" style="stop-color:rgb(0%,0%,0%);stop-opacity:0.313726;"/>
<stop offset="0.222222" style="stop-color:rgb(0%,0%,0%);stop-opacity:0.27451;"/>
<stop offset="1" style="stop-color:rgb(0%,0%,0%);stop-opacity:0;"/>
</radialGradient>
<linearGradient id="linear1" gradientUnits="userSpaceOnUse" x1="169.333328" y1="233.5" x2="169.333328" y2="-168.666656" gradientTransform="matrix(0.0468795,0,0,0.0468795,0,10.079087)">
<stop offset="0" style="stop-color:rgb(100%,65.490198%,14.901961%);stop-opacity:1;"/>
<stop offset="1" style="stop-color:rgb(100%,71.764708%,30.19608%);stop-opacity:1;"/>
</linearGradient>
<linearGradient id="linear2" gradientUnits="userSpaceOnUse" x1="24.001205" y1="43.359512" x2="24.001207" y2="4.524336" gradientTransform="matrix(0.485471,0,0,0.485471,0.25549,-0.0243532)">
<stop offset="0" style="stop-color:rgb(87.843138%,87.843138%,87.843138%);stop-opacity:1;"/>
<stop offset="1" style="stop-color:rgb(93.333334%,93.333334%,93.333334%);stop-opacity:1;"/>
</linearGradient>
</defs>
<g id="surface1">
<path style=" stroke:none;fill-rule:nonzero;fill:url(#linear0);" d="M 4.464844 20.953125 L 19.347656 20.953125 L 19.347656 22.054688 L 4.464844 22.054688 Z M 4.464844 20.953125 "/>
<path style=" stroke:none;fill-rule:nonzero;fill:url(#radial0);" d="M 19.347656 21.027344 L 21.335938 21.027344 L 21.335938 20.03125 L 19.347656 20.03125 Z M 19.347656 21.027344 "/>
<path style=" stroke:none;fill-rule:nonzero;fill:url(#radial1);" d="M 4.464844 21.027344 L 2.480469 21.027344 L 2.480469 22.019531 L 4.464844 22.019531 Z M 4.464844 21.027344 "/>
<path style=" stroke:none;fill-rule:nonzero;fill:url(#radial2);" d="M 4.464844 21.027344 L 2.480469 21.027344 L 2.480469 20.03125 L 4.464844 20.03125 Z M 4.464844 21.027344 "/>
<path style=" stroke:none;fill-rule:nonzero;fill:url(#radial3);" d="M 19.347656 21.027344 L 21.335938 21.027344 L 21.335938 22.019531 L 19.347656 22.019531 Z M 19.347656 21.027344 "/>
<path style=" stroke:none;fill-rule:nonzero;fill:url(#linear1);" d="M 3.472656 2.171875 L 20.339844 2.171875 C 20.890625 2.171875 21.335938 2.617188 21.335938 3.164062 L 21.335938 20.03125 C 21.335938 20.582031 20.890625 21.027344 20.339844 21.027344 L 3.472656 21.027344 C 2.925781 21.027344 2.480469 20.582031 2.480469 20.03125 L 2.480469 3.164062 C 2.480469 2.617188 2.925781 2.171875 3.472656 2.171875 Z M 3.472656 2.171875 "/>
<path style=" stroke:none;fill-rule:nonzero;fill:rgb(90.196079%,90.196079%,90.196079%);fill-opacity:0.588235;" d="M 3.472656 2.222656 C 2.921875 2.222656 2.480469 2.664062 2.480469 3.214844 L 2.480469 3.335938 C 2.480469 2.789062 2.921875 2.34375 3.472656 2.34375 L 20.339844 2.34375 C 20.890625 2.34375 21.335938 2.789062 21.335938 3.335938 L 21.335938 3.214844 C 21.335938 2.664062 20.890625 2.222656 20.339844 2.222656 Z M 3.472656 2.222656 "/>
<path style=" stroke:none;fill-rule:nonzero;fill:rgb(0%,0%,0%);fill-opacity:0.196078;" d="M 3.472656 20.964844 C 2.921875 20.964844 2.480469 20.519531 2.480469 19.972656 L 2.480469 19.847656 C 2.480469 20.398438 2.921875 20.839844 3.472656 20.839844 L 20.339844 20.839844 C 20.890625 20.839844 21.335938 20.398438 21.335938 19.847656 L 21.335938 19.972656 C 21.335938 20.519531 20.890625 20.964844 20.339844 20.964844 Z M 3.472656 20.964844 "/>
<path style="fill:none;stroke-width:3;stroke-linecap:round;stroke-linejoin:miter;stroke:rgb(12.941177%,12.941177%,12.941177%);stroke-opacity:1;stroke-miterlimit:4;" d="M 74.076259 -168.671091 L 433.875234 -168.671091 C 445.624112 -168.671091 455.123205 -159.171998 455.123205 -147.506445 L 455.123205 212.292529 C 455.123205 224.041407 445.624112 233.5405 433.875234 233.5405 L 74.076259 233.5405 C 62.410707 233.5405 52.911614 224.041407 52.911614 212.292529 L 52.911614 -147.506445 C 52.911614 -159.171998 62.410707 -168.671091 74.076259 -168.671091 Z M 74.076259 -168.671091 " transform="matrix(0.0468795,0,0,0.0468795,0,10.079087)"/>
<path style=" stroke:none;fill-rule:nonzero;fill:url(#linear2);" d="M 14.445312 5.832031 C 14.238281 5.996094 13.628906 7.152344 13.019531 8.527344 C 12.773438 9.089844 12.425781 9.824219 12.25 10.160156 C 11.726562 11.160156 10.449219 12.976562 9.855469 13.558594 L 9.304688 14.105469 C 10.324219 14.542969 10.667969 17.054688 11.296875 17.449219 C 11.34375 17.449219 11.613281 17.296875 11.914062 17.105469 C 12.582031 16.671875 13.207031 16.089844 14.058594 15.09375 C 15.386719 13.546875 16.386719 13.21875 17.613281 13.929688 C 17.945312 14.121094 18.21875 14.242188 18.21875 14.199219 C 18.21875 14.148438 18.050781 13.683594 17.847656 13.15625 C 17.644531 12.632812 17.089844 11.148438 16.621094 9.863281 C 16.285156 9.296875 15.1875 5.4375 14.445312 5.835938 M 11.796875 9.003906 C 11.789062 9.003906 11.785156 9.003906 11.777344 9.007812 C 11.269531 9.386719 9.425781 10.359375 9.515625 10.570312 C 9.613281 10.792969 10.402344 11.328125 10.550781 11.210938 C 10.621094 11.15625 10.894531 10.75 11.164062 10.308594 C 11.636719 9.519531 11.878906 9.015625 11.796875 9.003906 M 8.648438 11.230469 C 8.457031 11.230469 5.742188 12.285156 5.609375 12.410156 C 5.574219 12.445312 5.613281 12.511719 5.699219 12.5625 C 6.449219 13.085938 7.195312 13.582031 7.828125 13.984375 C 7.859375 13.984375 8.101562 13.855469 8.359375 13.695312 C 8.898438 13.359375 9.945312 12.328125 9.941406 12.128906 C 9.9375 11.953125 8.894531 11.230469 8.648438 11.230469 "/>
<path style=" stroke:none;fill-rule:nonzero;fill:rgb(100%,100%,100%);fill-opacity:1;" d="M 14.550781 5.804688 C 14.515625 5.804688 14.480469 5.816406 14.445312 5.835938 L 14.445312 5.832031 C 14.238281 5.996094 13.628906 7.152344 13.019531 8.527344 C 12.773438 9.089844 12.425781 9.824219 12.25 10.160156 C 11.726562 11.160156 10.449219 12.976562 9.855469 13.558594 L 9.304688 14.105469 C 9.398438 14.144531 9.484375 14.203125 9.570312 14.273438 L 9.855469 13.988281 C 10.449219 13.410156 11.726562 11.589844 12.25 10.589844 C 12.425781 10.253906 12.773438 9.519531 13.019531 8.957031 C 13.628906 7.582031 14.238281 6.425781 14.445312 6.261719 L 14.445312 6.265625 C 15.1875 5.867188 16.285156 9.726562 16.621094 10.292969 C 17.089844 11.582031 17.644531 13.0625 17.847656 13.589844 C 17.929688 13.796875 18.003906 13.996094 18.0625 14.160156 C 18.160156 14.203125 18.21875 14.21875 18.21875 14.199219 C 18.21875 14.148438 18.050781 13.683594 17.847656 13.15625 C 17.644531 12.632812 17.089844 11.148438 16.621094 9.863281 C 16.300781 9.324219 15.289062 5.789062 14.550781 5.804688 Z M 11.796875 9.003906 C 11.789062 9.003906 11.785156 9.003906 11.777344 9.007812 C 11.269531 9.386719 9.425781 10.359375 9.515625 10.570312 C 9.539062 10.625 9.605469 10.695312 9.691406 10.773438 C 10.09375 10.449219 11.074219 9.902344 11.585938 9.570312 C 11.769531 9.21875 11.851562 9.011719 11.796875 9.003906 Z M 8.648438 11.230469 C 8.457031 11.230469 5.742188 12.285156 5.609375 12.410156 C 5.574219 12.445312 5.613281 12.511719 5.699219 12.5625 C 5.765625 12.605469 5.832031 12.652344 5.894531 12.695312 C 6.625 12.375 8.492188 11.664062 8.648438 11.664062 L 8.648438 11.660156 C 8.839844 11.660156 9.507812 12.097656 9.800781 12.375 C 9.890625 12.261719 9.941406 12.175781 9.941406 12.128906 C 9.9375 11.953125 8.894531 11.230469 8.648438 11.230469 Z M 8.648438 11.230469 "/>
<path style=" stroke:none;fill-rule:nonzero;fill:rgb(0%,0%,0%);fill-opacity:0.235294;" d="M 11.796875 9.355469 C 11.789062 9.355469 11.785156 9.355469 11.777344 9.359375 C 11.738281 9.386719 11.695312 9.414062 11.648438 9.449219 C 11.535156 9.667969 11.371094 9.960938 11.164062 10.308594 C 10.894531 10.75 10.621094 11.15625 10.550781 11.210938 C 10.433594 11.304688 9.902344 10.980469 9.648438 10.730469 C 9.550781 10.816406 9.5 10.882812 9.515625 10.921875 C 9.613281 11.144531 10.402344 11.679688 10.550781 11.5625 C 10.621094 11.507812 10.894531 11.101562 11.164062 10.660156 C 11.636719 9.871094 11.878906 9.367188 11.796875 9.355469 Z M 9.835938 12.328125 C 9.558594 12.703125 8.792969 13.425781 8.359375 13.695312 C 8.101562 13.855469 7.859375 13.984375 7.828125 13.984375 C 7.230469 13.605469 6.53125 13.140625 5.824219 12.648438 C 5.707031 12.703125 5.628906 12.742188 5.609375 12.761719 C 5.574219 12.796875 5.613281 12.863281 5.699219 12.910156 C 6.449219 13.4375 7.195312 13.933594 7.828125 14.335938 C 7.859375 14.335938 8.101562 14.207031 8.359375 14.046875 C 8.898438 13.710938 9.945312 12.679688 9.941406 12.480469 C 9.941406 12.449219 9.902344 12.394531 9.835938 12.328125 Z M 16.460938 13.570312 C 15.695312 13.5625 14.953125 14.054688 14.058594 15.09375 C 13.207031 16.089844 12.582031 16.671875 11.914062 17.105469 C 11.613281 17.296875 11.34375 17.449219 11.296875 17.449219 C 10.714844 17.085938 10.378906 14.910156 9.523438 14.238281 L 9.304688 14.457031 C 10.324219 14.890625 10.667969 17.40625 11.296875 17.800781 C 11.34375 17.800781 11.613281 17.648438 11.914062 17.457031 C 12.582031 17.023438 13.207031 16.4375 14.058594 15.445312 C 15.386719 13.894531 16.386719 13.566406 17.613281 14.277344 C 17.945312 14.472656 18.21875 14.59375 18.21875 14.546875 C 18.21875 14.523438 18.171875 14.378906 18.097656 14.175781 C 17.988281 14.132812 17.8125 14.042969 17.613281 13.929688 C 17.210938 13.695312 16.832031 13.574219 16.460938 13.570312 Z M 16.460938 13.570312 "/>
<path style="fill:none;stroke-width:3;stroke-linecap:butt;stroke-linejoin:miter;stroke:rgb(12.941177%,12.941177%,12.941177%);stroke-opacity:1;stroke-miterlimit:4;" d="M 308.137241 -90.595213 C 303.720996 -87.095548 290.722237 -62.431236 277.723479 -33.100704 C 272.47398 -21.10185 265.058022 -5.436679 261.30838 1.729303 C 250.142779 23.0606 222.895381 61.8069 210.229924 74.222381 L 198.481046 85.887933 C 220.228969 95.220375 227.561602 148.798592 240.976988 157.214455 C 241.976892 157.214455 247.726343 153.964766 254.142397 149.881822 C 268.391037 140.632705 281.723097 128.217224 299.888029 106.969253 C 328.218657 73.972405 349.549953 66.973073 375.714121 82.138291 C 382.796778 86.221235 388.629554 88.804321 388.629554 87.887742 C 388.629554 86.804512 385.046563 76.888793 380.713644 65.639867 C 376.380724 54.474266 364.548521 22.810624 354.549476 -4.603425 C 347.383493 -16.685605 323.969063 -99.011076 308.137241 -90.511888 M 251.642636 -22.935008 C 251.475985 -22.935008 251.39266 -22.935008 251.226009 -22.851683 C 240.39371 -14.769121 201.064133 5.978898 202.980616 10.478468 C 205.063751 15.228014 221.895477 26.643591 225.061841 24.14383 C 226.561698 22.977274 232.394474 14.311435 238.143925 4.895668 C 248.226296 -11.936058 253.392469 -22.685032 251.642636 -22.935008 M 184.482383 24.560456 C 180.399439 24.560456 122.488303 47.058308 119.65524 49.72472 C 118.905312 50.474648 119.738566 51.89118 121.571724 52.97441 C 137.570196 64.14001 153.485343 74.722333 166.984054 83.304847 C 167.650657 83.304847 172.81683 80.555109 178.316305 77.138769 C 189.815207 69.972786 212.146408 47.974887 212.063082 43.725293 C 211.979757 39.975651 189.731882 24.560456 184.482383 24.560456 " transform="matrix(0.0468795,0,0,0.0468795,0,10.079087)"/>
</g>
</svg>
